lib/brands/icons/steam.svg

<svg xmlns="http://www.w3.org/2000/svg" fill="none" aria-hidden="true" viewBox="0 0 48 48"><g id="steam-Icon"><path id="bg" fill="url(#paint0_linear_94_20598)" d="M3.855 30.0404C6.4511 38.6946 14.4818 45 23.9864 45C35.5916 45 44.9998 35.5978 44.9998 24C44.9998 12.402 35.5916 3 23.9864 3C12.85 3 3.73775 11.6576 3.01807 22.6048C3.01806 25.75 3.01807 27.0625 3.855 30.0404Z"/><path id="steam" fill="white" d="M22.9059 18.8443L17.7639 26.3091C16.5517 26.254 15.3315 26.5969 14.3186 27.2627L3.02744 22.6174C3.02744 22.6174 2.76617 26.913 3.85499 30.1144L11.8372 33.4059C12.238 35.1958 13.4667 36.7659 15.2794 37.5211C18.2453 38.7595 21.665 37.3481 22.8987 34.3829C23.2198 33.6077 23.3695 32.7948 23.3479 31.9836L30.8856 26.7327C35.2885 26.7327 38.8671 23.1456 38.8671 18.7405C38.8671 14.335 35.2885 10.7511 30.8856 10.7511C26.633 10.7511 22.6676 14.4618 22.9059 18.8443ZM21.6704 33.8673C20.7155 36.1584 18.081 37.2453 15.791 36.2918C14.7345 35.852 13.9369 35.0462 13.4768 34.0854L16.0751 35.1616C17.7639 35.8646 19.7014 35.0642 20.4035 33.377C21.1076 31.688 20.3088 29.7484 18.6208 29.0454L15.9349 27.9332C16.9713 27.5403 18.1495 27.5259 19.2503 27.9837C20.3602 28.4452 21.2213 29.314 21.6776 30.4244C22.1339 31.5348 22.1321 32.7605 21.6704 33.8673ZM30.8856 24.0649C27.9546 24.0649 25.5682 21.6765 25.5682 18.7405C25.5682 15.8068 27.9546 13.4176 30.8856 13.4176C33.8185 13.4176 36.2048 15.8068 36.2048 18.7405C36.2048 21.6765 33.8185 24.0649 30.8856 24.0649ZM26.9012 18.7324C26.9012 16.5237 28.6905 14.7323 30.8946 14.7323C33.1006 14.7323 34.8899 16.5237 34.8899 18.7324C34.8899 20.9412 33.1006 22.731 30.8946 22.731C28.6905 22.731 26.9012 20.9412 26.9012 18.7324Z"/></g><defs><linearGradient id="paint0_linear_94_20598" x1="24.0089" x2="24.0089" y1="3" y2="45" gradientUnits="userSpaceOnUse"><stop stop-color="#111D2E"/><stop offset="0.21248" stop-color="#051839"/><stop offset="0.40695" stop-color="#0A1B48"/><stop offset="0.5811" stop-color="#132E62"/><stop offset="0.7376" stop-color="#144B7E"/><stop offset="0.87279" stop-color="#136497"/><stop offset="1" stop-color="#1387B8"/></linearGradient></defs></svg>

<svg xmlns="http://www.w3.org/2000/svg" fill="none" aria-hidden="true" viewBox="0 0 48 48"><path fill="url(#a)" d="M3.855 30.04C6.451 38.695 14.482 45 23.987 45 35.592 45 45 35.598 45 24S35.592 3 23.987 3C12.85 3 3.737 11.658 3.018 22.605c0 3.145 0 4.457.837 7.435Z"/><path fill="#fff" d="m22.906 18.844-5.142 7.465a5.836 5.836 0 0 0-3.445.954L3.027 22.617s-.26 4.296.828 7.497l7.982 3.292a5.82 5.82 0 0 0 3.442 4.115 5.83 5.83 0 0 0 8.069-5.537l7.538-5.251c4.402 0 7.981-3.587 7.981-7.992 0-4.406-3.578-7.99-7.981-7.99-4.253 0-8.218 3.71-7.98 8.093ZM21.67 33.867a4.5 4.5 0 0 1-5.879 2.425 4.468 4.468 0 0 1-2.314-2.207l2.598 1.077a3.312 3.312 0 0 0 2.546-6.116l-2.686-1.113a4.472 4.472 0 0 1 3.315.05 4.461 4.461 0 0 1 2.428 2.441 4.476 4.476 0 0 1-.008 3.443Zm9.216-9.802a5.328 5.328 0 0 1-5.318-5.325 5.328 5.328 0 0 1 5.318-5.322 5.328 5.328 0 0 1 5.319 5.323 5.328 5.328 0 0 1-5.32 5.324ZM26.9 18.732c0-2.208 1.79-4 3.994-4a3.998 3.998 0 0 1 3.995 4 3.997 3.997 0 0 1-3.995 3.999 3.997 3.997 0 0 1-3.994-3.999Z"/><defs><linearGradient id="a" x1="24.009" x2="24.009" y1="3" y2="45" gradientUnits="userSpaceOnUse"><stop stop-color="#111D2E"/><stop offset=".212" stop-color="#051839"/><stop offset=".407" stop-color="#0A1B48"/><stop offset=".581" stop-color="#132E62"/><stop offset=".738" stop-color="#144B7E"/><stop offset=".873" stop-color="#136497"/><stop offset="1" stop-color="#1387B8"/></linearGradient></defs></svg>
